X:028
U: ~ = !turn!
%%topmargin 3cm
T:Carraroe Jig
B:Traditional Irish Fiddle Tunes. Randy Miller and Jack Perron.
Z:Transcribed by Ralph Palmer
R:Jig
L:1/8
M:6/8
K:D
DED F2 A | dfe d2 A | BAF Adf | afd e2 f |!
DED F2 A | dfe d2 A | d2 B AFA | [1 dAF E2 F :|] [2 dAF E2 A ||
|: dfa {/b}afa | bge edB | dfa {/b}afa | bge e2 A |
dfa {/b}afa | bge edB | d2 B AFA | [1 dAF E2 A :|] [2 dAF E2 F |]
